docs/images/local-and-online.svg

<svg fill="none" height="752" viewBox="0 0 1567 752" width="1567" xmlns="http://www.w3.org/2000/svg" xmlns:xlink="http://www.w3.org/1999/xlink"><filter id="a" color-interpolation-filters="sRGB" filterUnits="userSpaceOnUse" height="340" width="340" x="986" y="142"><feFlood flood-opacity="0" result="BackgroundImageFix"/><feColorMatrix in="SourceAlpha" result="hardAlpha" type="matrix" values="0 0 0 0 0 0 0 0 0 0 0 0 0 0 0 0 0 0 127 0"/><feOffset dy="4"/><feGaussianBlur stdDeviation="15"/><feComposite in2="hardAlpha" operator="out"/><feColorMatrix type="matrix" values="0 0 0 0 0.423529 0 0 0 0 0.756863 0 0 0 0 1 0 0 0 0.44 0"/><feBlend in2="BackgroundImageFix" mode="normal" result="effect1_dropShadow_167_16"/><feBlend in="SourceGraphic" in2="effect1_dropShadow_167_16" mode="normal" result="shape"/></filter><path d="m0 50c0-27.6143 22.3858-50 50-50h1467c27.61 0 50 22.3858 50 50v652c0 27.614-22.39 50-50 50h-1467c-27.6143 0-50-22.386-50-50z" fill="#fff"/><g fill="#6cc1ff" fill-opacity=".24" opacity=".85"><rect height="645" rx="38.5" width="700" x="806" y="54"/><rect height="55" rx="27.5" width="272" x="859" y="120"/><rect height="54" rx="27" width="522" x="859" y="234"/><rect height="55" rx="27.5" width="439" x="859" y="461"/><rect height="55" rx="27.5" width="377" x="859" y="569"/><rect height="55" rx="27.5" width="567" x="859" y="347"/></g><g opacity=".85"><rect fill="#ffe8a3" fill-opacity=".3" height="645" rx="38.5" width="700" x="62" y="52"/><g fill="#f8d97a" fill-opacity=".29"><rect height="55" rx="27.5" width="272" x="115" y="118"/><rect height="54" rx="27" width="522" x="115" y="232"/><rect height="55" rx="27.5" width="439" x="115" y="459"/><rect height="55" rx="27.5" width="377" x="115" y="567"/><rect height="55" rx="27.5" width="567" x="115" y="345"/></g></g><path d="m537 382.75h-250v-156.25h250m0-31.25h-125l-31.25-31.25h-93.75c-17.344 0-31.25 13.906-31.25 31.25v187.5c0 8.288 3.292 16.237 9.153 22.097 5.86 5.861 13.809 9.153 22.097 9.153h250c8.288 0 16.237-3.292 22.097-9.153 5.861-5.86 9.153-13.809 9.153-22.097v-156.25c0-8.288-3.292-16.237-9.153-22.097-5.86-5.861-13.809-9.153-22.097-9.153z" fill="#ffd146"/><path d="m286.583 226.5h250.834v156.667h-250.834z" fill="#ffd146"/><rect fill="#ffe28b" height="156.667" rx="12" width="250.833" x="286.583" y="226.5"/><path d="m277.078 548.203 6.016-2.422v-37.578l-6.016-2.422v-6.797l18.399-.39h22.421v15.195h-7.46l-1.993-5.586h-12.968v13.985h16.562v8.828h-16.562v14.765l7.382 2.422v6.797h-25.781zm46.016 0 6.015-2.422v-37.578l-6.015-2.422v-6.797l24.414-.39v7.187l-6.016 2.422v37.578l6.016 2.422v6.797h-24.414zm62.383-11.601h7.578v18.398h-40v-6.797l6.015-2.422v-37.578l-6.015-2.422v-6.797l24.414-.39v7.187l-6.016 2.422v37.188h12.266zm46.562-6.407h-16.172v15.196h14.336l1.836-6.563h7.188v16.172h-41.758v-6.797l6.015-2.422v-37.578l-6.015-2.422v-6.797l18.398-.39h22.422v15.429h-7.227l-1.992-5.82h-13.203v13.203h16.172zm16.953-5.429c0-2.24.677-4.011 2.031-5.313 1.381-1.328 3.021-1.992 4.922-1.992 2.188 0 3.841.638 4.961 1.914 1.12 1.25 1.68 3.047 1.68 5.391 0 2.187-.677 3.932-2.031 5.234s-2.969 1.953-4.844 1.953c-2.188 0-3.854-.625-5-1.875s-1.719-3.021-1.719-5.312zm0 23.984c0-2.188.677-3.932 2.031-5.234 1.381-1.302 3.021-1.954 4.922-1.954 2.188 0 3.841.626 4.961 1.876s1.68 3.02 1.68 5.312c0 2.24-.664 4.023-1.992 5.352-1.328 1.302-2.956 1.953-4.883 1.953-2.188 0-3.854-.625-5-1.875-1.146-1.276-1.719-3.086-1.719-5.43zm32.774 6.25h-12.149l26.641-56.406h12.226zm41.25 0h-12.149l26.641-56.406h12.226z" fill="#404040"/><path d="m273.484 562.969h277.032v3.984h-277.032z" fill="#404040"/><g filter="url(#a)"><path d="m1238.6 383.46c-3.64-11.2-14.14-19.46-26.6-19.46h-14v-42c0-3.713-1.47-7.274-4.1-9.899-2.63-2.626-6.19-4.101-9.9-4.101h-84v-28h28c3.71 0 7.27-1.475 9.9-4.101 2.63-2.625 4.1-6.186 4.1-9.899v-28h28c7.43 0 14.55-2.95 19.8-8.201s8.2-12.373 8.2-19.799v-5.74c16.75 6.753 31.62 17.465 43.32 31.218 11.71 13.753 19.91 30.138 23.9 47.752s3.65 35.933-.98 53.389c-4.64 17.455-13.44 33.528-25.64 46.841zm-96.6 35.56c-55.3-6.86-98-53.9-98-111.02 0-8.68 1.12-17.08 2.94-25.06l67.06 67.06v14c0 7.426 2.95 14.548 8.2 19.799s12.37 8.201 19.8 8.201m14-224c-18.39 0-36.59 3.621-53.58 10.657-16.98 7.036-32.41 17.348-45.41 30.348-26.26 26.255-41.01 61.865-41.01 98.995s14.75 72.74 41.01 98.995c13 13 28.43 23.312 45.41 30.348 16.99 7.036 35.19 10.657 53.58 10.657 37.13 0 72.74-14.75 98.99-41.005 26.26-26.255 41.01-61.865 41.01-98.995 0-18.385-3.62-36.59-10.66-53.576-7.03-16.985-17.34-32.419-30.35-45.419-13-13-28.43-23.312-45.41-30.348-16.99-7.036-35.19-10.657-53.58-10.657z" fill="#6cc1ff"/></g><g fill="#404040"><path d="m987.799 550.628 5.603-2.271v-35.229l-5.603-2.271v-6.372l23.251-.366v6.738l-6 2.271v12.012h19.63v-12.012l-6.01-2.271v-6.372l23.26-.366v6.738l-5.61 2.271v35.229l5.61 2.271v6.372h-23.26v-6.372l6.01-2.271v-14.245h-19.63v14.245l6 2.271v6.372h-23.251zm73.421-37.5h-7.14l-1.86 7.104h-6.93v-16.113h43.51v16.113h-6.96l-1.87-7.104h-7.14v35.229l7.14 2.271v6.372h-25.89v-6.372l7.14-2.271zm44.98 0h-7.15l-1.86 7.104h-6.92v-16.113h43.5v16.113h-6.96l-1.86-7.104h-7.15v35.229l7.15 2.271v6.372h-25.9v-6.372l7.15-2.271zm30.94 37.5 5.6-2.271v-35.229l-5.6-2.271v-6.372l17.25-.366h7.1c5.69 0 10.15 1.404 13.37 4.212 3.25 2.807 4.87 6.652 4.87 11.535 0 6.201-1.84 10.877-5.53 14.026-3.66 3.15-8.95 4.724-15.86 4.724h-3.95v9.741l5.6 2.271v6.372h-22.85zm21.2-20.764c3.15 0 5.57-.72 7.25-2.161 1.69-1.465 2.53-3.577 2.53-6.335 0-2.491-.67-4.48-2.01-5.97-1.32-1.513-3.23-2.27-5.72-2.27h-6v16.736zm36.33 17.175c.15.098.54.269 1.17.513.66.244 1.53.488 2.6.732 1.08.22 2.26.33 3.56.33 2.54 0 4.68-.537 6.44-1.612 1.76-1.074 2.64-2.563 2.64-4.467 0-1.148-.39-2.112-1.17-2.893-.76-.782-1.74-1.429-2.93-1.941-1.18-.537-2.88-1.209-5.13-2.014-3.3-1.148-6.02-2.283-8.17-3.406s-4.01-2.747-5.6-4.871c-1.56-2.124-2.34-4.883-2.34-8.276 0-3.345.81-6.214 2.45-8.606 1.66-2.417 3.93-4.236 6.81-5.457 2.88-1.22 6.14-1.831 9.78-1.831 2.49 0 4.96.22 7.4.659 2.46.44 4.49.904 6.08 1.392 1.61.464 2.62.781 3.04.952l-.41 13.623h-6.88l-1.87-6.372c-.2-.049-.62-.159-1.28-.329-.66-.171-1.48-.342-2.46-.513-.97-.195-1.92-.293-2.85-.293-2.54 0-4.51.5-5.9 1.501s-2.09 2.283-2.09 3.846c0 1.611.75 2.88 2.24 3.808 1.51.903 3.89 1.929 7.14 3.076 3.3 1.148 6.01 2.271 8.13 3.369 2.15 1.099 3.98 2.674 5.49 4.725 1.54 2.05 2.31 4.675 2.31 7.873 0 3.662-.88 6.812-2.64 9.448-1.75 2.613-4.16 4.602-7.21 5.97-3.05 1.342-6.52 2.014-10.4 2.014-2.49 0-4.98-.22-7.47-.659-2.47-.415-4.52-.843-6.15-1.282-1.64-.464-2.68-.769-3.12-.916v-14.392h7.66zm36.99-18.384c0-2.099.63-3.759 1.9-4.98 1.3-1.245 2.84-1.868 4.62-1.868 2.05 0 3.6.598 4.65 1.795 1.05 1.171 1.57 2.856 1.57 5.053 0 2.051-.63 3.687-1.9 4.907-1.27 1.221-2.78 1.832-4.54 1.832-2.05 0-3.62-.586-4.69-1.758s-1.61-2.832-1.61-4.981zm0 22.486c0-2.051.63-3.687 1.9-4.908 1.3-1.22 2.84-1.831 4.62-1.831 2.05 0 3.6.586 4.65 1.758s1.57 2.832 1.57 4.981c0 2.099-.62 3.772-1.86 5.017-1.25 1.22-2.78 1.831-4.58 1.831-2.05 0-3.62-.586-4.69-1.758-1.07-1.196-1.61-2.893-1.61-5.09zm30.72 5.859h-11.38l24.97-52.881h11.46zm38.68 0h-11.39l24.97-52.881h11.46z"/><path d="m985.163 564.471h341.677v3.735h-341.677z"/></g></svg>

<svg width="1567" height="752" viewBox="0 0 1567 752" fill="none" xmlns="http://www.w3.org/2000/svg">
<path d="M0 50C0 22.3857 22.3858 0 50 0H1517C1544.61 0 1567 22.3858 1567 50V702C1567 729.614 1544.61 752 1517 752H50C22.3857 752 0 729.614 0 702V50Z" fill="white"/>
<g opacity="0.85">
<rect x="806" y="54" width="700" height="645" rx="38.5" fill="#6CC1FF" fill-opacity="0.24"/>
<rect x="859" y="120" width="272" height="55" rx="27.5" fill="#6CC1FF" fill-opacity="0.24"/>
<rect x="859" y="234" width="522" height="54" rx="27" fill="#6CC1FF" fill-opacity="0.24"/>
<rect x="859" y="461" width="439" height="55" rx="27.5" fill="#6CC1FF" fill-opacity="0.24"/>
<rect x="859" y="569" width="377" height="55" rx="27.5" fill="#6CC1FF" fill-opacity="0.24"/>
<rect x="859" y="347" width="567" height="55" rx="27.5" fill="#6CC1FF" fill-opacity="0.24"/>
</g>
<g opacity="0.85">
<rect x="62" y="52" width="700" height="645" rx="38.5" fill="#FFE8A3" fill-opacity="0.3"/>
<rect x="115" y="118" width="272" height="55" rx="27.5" fill="#F8D97A" fill-opacity="0.29"/>
<rect x="115" y="232" width="522" height="54" rx="27" fill="#F8D97A" fill-opacity="0.29"/>
<rect x="115" y="459" width="439" height="55" rx="27.5" fill="#F8D97A" fill-opacity="0.29"/>
<rect x="115" y="567" width="377" height="55" rx="27.5" fill="#F8D97A" fill-opacity="0.29"/>
<rect x="115" y="345" width="567" height="55" rx="27.5" fill="#F8D97A" fill-opacity="0.29"/>
</g>
<path d="M537 382.75H287V226.5H537M537 195.25H412L380.75 164H287C269.656 164 255.75 177.906 255.75 195.25V382.75C255.75 391.038 259.042 398.987 264.903 404.847C270.763 410.708 278.712 414 287 414H537C545.288 414 553.237 410.708 559.097 404.847C564.958 398.987 568.25 391.038 568.25 382.75V226.5C568.25 218.212 564.958 210.263 559.097 204.403C553.237 198.542 545.288 195.25 537 195.25Z" fill="#FFD146"/>
<path d="M286.583 226.5H537.417V383.167H286.583V226.5Z" fill="#FFD146"/>
<rect x="286.583" y="226.5" width="250.833" height="156.667" rx="12" fill="#FFE28B"/>
<path d="M277.078 548.203L283.094 545.781V508.203L277.078 505.781V498.984L295.477 498.594H317.898V513.789H310.438L308.445 508.203H295.477V522.188H312.039V531.016H295.477V545.781L302.859 548.203V555H277.078V548.203ZM323.094 548.203L329.109 545.781V508.203L323.094 505.781V498.984L347.508 498.594V505.781L341.492 508.203V545.781L347.508 548.203V555H323.094V548.203ZM385.477 536.602H393.055V555H353.055V548.203L359.07 545.781V508.203L353.055 505.781V498.984L377.469 498.594V505.781L371.453 508.203V545.391H383.719L385.477 536.602ZM432.039 530.195H415.867V545.391H430.203L432.039 538.828H439.227V555H397.469V548.203L403.484 545.781V508.203L397.469 505.781V498.984L415.867 498.594H438.289V514.023H431.062L429.07 508.203H415.867V521.406H432.039V530.195ZM448.992 524.766C448.992 522.526 449.669 520.755 451.023 519.453C452.404 518.125 454.044 517.461 455.945 517.461C458.133 517.461 459.786 518.099 460.906 519.375C462.026 520.625 462.586 522.422 462.586 524.766C462.586 526.953 461.909 528.698 460.555 530C459.201 531.302 457.586 531.953 455.711 531.953C453.523 531.953 451.857 531.328 450.711 530.078C449.565 528.828 448.992 527.057 448.992 524.766ZM448.992 548.75C448.992 546.562 449.669 544.818 451.023 543.516C452.404 542.214 454.044 541.562 455.945 541.562C458.133 541.562 459.786 542.188 460.906 543.438C462.026 544.688 462.586 546.458 462.586 548.75C462.586 550.99 461.922 552.773 460.594 554.102C459.266 555.404 457.638 556.055 455.711 556.055C453.523 556.055 451.857 555.43 450.711 554.18C449.565 552.904 448.992 551.094 448.992 548.75ZM481.766 555H469.617L496.258 498.594H508.484L481.766 555ZM523.016 555H510.867L537.508 498.594H549.734L523.016 555Z" fill="#404040"/>
<path d="M273.484 562.969H550.516V566.953H273.484V562.969Z" fill="#404040"/>
<g filter="url(#filter0_d_167_16)">
<path d="M1238.6 383.46C1234.96 372.26 1224.46 364 1212 364H1198V322C1198 318.287 1196.53 314.726 1193.9 312.101C1191.27 309.475 1187.71 308 1184 308H1100V280H1128C1131.71 280 1135.27 278.525 1137.9 275.899C1140.53 273.274 1142 269.713 1142 266V238H1170C1177.43 238 1184.55 235.05 1189.8 229.799C1195.05 224.548 1198 217.426 1198 210V204.26C1214.75 211.013 1229.62 221.725 1241.32 235.478C1253.03 249.231 1261.23 265.616 1265.22 283.23C1269.21 300.844 1268.87 319.163 1264.24 336.619C1259.6 354.074 1250.8 370.147 1238.6 383.46ZM1142 419.02C1086.7 412.16 1044 365.12 1044 308C1044 299.32 1045.12 290.92 1046.94 282.94L1114 350V364C1114 371.426 1116.95 378.548 1122.2 383.799C1127.45 389.05 1134.57 392 1142 392M1156 168C1137.61 168 1119.41 171.621 1102.42 178.657C1085.44 185.693 1070.01 196.005 1057.01 209.005C1030.75 235.26 1016 270.87 1016 308C1016 345.13 1030.75 380.74 1057.01 406.995C1070.01 419.995 1085.44 430.307 1102.42 437.343C1119.41 444.379 1137.61 448 1156 448C1193.13 448 1228.74 433.25 1254.99 406.995C1281.25 380.74 1296 345.13 1296 308C1296 289.615 1292.38 271.41 1285.34 254.424C1278.31 237.439 1268 222.005 1254.99 209.005C1241.99 196.005 1226.56 185.693 1209.58 178.657C1192.59 171.621 1174.39 168 1156 168Z" fill="#6CC1FF"/>
</g>
<path d="M987.799 550.628L993.402 548.357V513.128L987.799 510.857V504.485L1011.05 504.119V510.857L1005.05 513.128V525.14H1024.68V513.128L1018.67 510.857V504.485L1041.93 504.119V510.857L1036.32 513.128V548.357L1041.93 550.628V557H1018.67V550.628L1024.68 548.357V534.112H1005.05V548.357L1011.05 550.628V557H987.799V550.628ZM1061.22 513.128H1054.08L1052.22 520.232H1045.29V504.119H1088.8V520.232H1081.84L1079.97 513.128H1072.83V548.357L1079.97 550.628V557H1054.08V550.628L1061.22 548.357V513.128ZM1106.2 513.128H1099.05L1097.19 520.232H1090.27V504.119H1133.77V520.232H1126.81L1124.95 513.128H1117.8V548.357L1124.95 550.628V557H1099.05V550.628L1106.2 548.357V513.128ZM1137.14 550.628L1142.74 548.357V513.128L1137.14 510.857V504.485L1154.39 504.119H1161.49C1167.18 504.119 1171.64 505.523 1174.86 508.331C1178.11 511.138 1179.73 514.983 1179.73 519.866C1179.73 526.067 1177.89 530.743 1174.2 533.892C1170.54 537.042 1165.25 538.616 1158.34 538.616H1154.39V548.357L1159.99 550.628V557H1137.14V550.628ZM1158.34 529.864C1161.49 529.864 1163.91 529.144 1165.59 527.703C1167.28 526.238 1168.12 524.126 1168.12 521.368C1168.12 518.877 1167.45 516.888 1166.11 515.398C1164.79 513.885 1162.88 513.128 1160.39 513.128H1154.39V529.864H1158.34ZM1194.67 547.039C1194.82 547.137 1195.21 547.308 1195.84 547.552C1196.5 547.796 1197.37 548.04 1198.44 548.284C1199.52 548.504 1200.7 548.614 1202 548.614C1204.54 548.614 1206.68 548.077 1208.44 547.002C1210.2 545.928 1211.08 544.439 1211.08 542.535C1211.08 541.387 1210.69 540.423 1209.91 539.642C1209.15 538.86 1208.17 538.213 1206.98 537.701C1205.8 537.164 1204.1 536.492 1201.85 535.687C1198.55 534.539 1195.83 533.404 1193.68 532.281C1191.53 531.158 1189.67 529.534 1188.08 527.41C1186.52 525.286 1185.74 522.527 1185.74 519.134C1185.74 515.789 1186.55 512.92 1188.19 510.528C1189.85 508.111 1192.12 506.292 1195 505.071C1197.88 503.851 1201.14 503.24 1204.78 503.24C1207.27 503.24 1209.74 503.46 1212.18 503.899C1214.64 504.339 1216.67 504.803 1218.26 505.291C1219.87 505.755 1220.88 506.072 1221.3 506.243L1220.89 519.866H1214.01L1212.14 513.494C1211.94 513.445 1211.52 513.335 1210.86 513.165C1210.2 512.994 1209.38 512.823 1208.4 512.652C1207.43 512.457 1206.48 512.359 1205.55 512.359C1203.01 512.359 1201.04 512.859 1199.65 513.86C1198.26 514.861 1197.56 516.143 1197.56 517.706C1197.56 519.317 1198.31 520.586 1199.8 521.514C1201.31 522.417 1203.69 523.443 1206.94 524.59C1210.24 525.738 1212.95 526.861 1215.07 527.959C1217.22 529.058 1219.05 530.633 1220.56 532.684C1222.1 534.734 1222.87 537.359 1222.87 540.557C1222.87 544.219 1221.99 547.369 1220.23 550.005C1218.48 552.618 1216.07 554.607 1213.02 555.975C1209.97 557.317 1206.5 557.989 1202.62 557.989C1200.13 557.989 1197.64 557.769 1195.15 557.33C1192.68 556.915 1190.63 556.487 1189 556.048C1187.36 555.584 1186.32 555.279 1185.88 555.132V540.74H1193.54L1194.67 547.039ZM1231.66 528.655C1231.66 526.556 1232.29 524.896 1233.56 523.675C1234.86 522.43 1236.4 521.807 1238.18 521.807C1240.23 521.807 1241.78 522.405 1242.83 523.602C1243.88 524.773 1244.4 526.458 1244.4 528.655C1244.4 530.706 1243.77 532.342 1242.5 533.562C1241.23 534.783 1239.72 535.394 1237.96 535.394C1235.91 535.394 1234.34 534.808 1233.27 533.636C1232.2 532.464 1231.66 530.804 1231.66 528.655ZM1231.66 551.141C1231.66 549.09 1232.29 547.454 1233.56 546.233C1234.86 545.013 1236.4 544.402 1238.18 544.402C1240.23 544.402 1241.78 544.988 1242.83 546.16C1243.88 547.332 1244.4 548.992 1244.4 551.141C1244.4 553.24 1243.78 554.913 1242.54 556.158C1241.29 557.378 1239.76 557.989 1237.96 557.989C1235.91 557.989 1234.34 557.403 1233.27 556.231C1232.2 555.035 1231.66 553.338 1231.66 551.141ZM1262.38 557H1251L1275.97 504.119H1287.43L1262.38 557ZM1301.06 557H1289.67L1314.64 504.119H1326.1L1301.06 557Z" fill="#404040"/>
<path d="M985.163 564.471H1326.84V568.206H985.163V564.471Z" fill="#404040"/>
<defs>
<filter id="filter0_d_167_16" x="986" y="142" width="340" height="340" filterUnits="userSpaceOnUse" color-interpolation-filters="sRGB">
<feFlood flood-opacity="0" result="BackgroundImageFix"/>
<feColorMatrix in="SourceAlpha" type="matrix" values="0 0 0 0 0 0 0 0 0 0 0 0 0 0 0 0 0 0 127 0" result="hardAlpha"/>
<feOffset dy="4"/>
<feGaussianBlur stdDeviation="15"/>
<feComposite in2="hardAlpha" operator="out"/>
<feColorMatrix type="matrix" values="0 0 0 0 0.423529 0 0 0 0 0.756863 0 0 0 0 1 0 0 0 0.44 0"/>
<feBlend mode="normal" in2="BackgroundImageFix" result="effect1_dropShadow_167_16"/>
<feBlend mode="normal" in="SourceGraphic" in2="effect1_dropShadow_167_16" result="shape"/>
</filter>
</defs>
</svg>
